web/public/images/ic-cogs.svg

<?xml version="1.0" encoding="UTF-8"?>
<svg width="20px" height="20px" viewBox="0 0 20 20" version="1.1" xmlns="http://www.w3.org/2000/svg" xmlns:xlink="http://www.w3.org/1999/xlink">
    <!-- Generator: Sketch 51.2 (57519) - http://www.bohemiancoding.com/sketch -->
    <title>ic_cogs</title>
    <desc>Created with Sketch.</desc>
    <defs></defs>
    <g id="Page-1" stroke="none" stroke-width="1" fill="none" fill-rule="evenodd">
        <g id="Job_page_mobile_trigger_02" transform="translate(-44.000000, -595.000000)" fill="#FFFFFF" fill-rule="nonzero">
            <g id="ic_cogs" transform="translate(44.000000, 595.000000)">
                <path d="M13.2380952,15.6666667 C14.5238095,15.6666667 15.5714286,14.6190476 15.5714286,13.3333333 C15.5714286,12.047619 14.5238095,11 13.2380952,11 C11.9428571,11 10.9047619,12.047619 10.9047619,13.3333333 C10.9047619,14.6190476 11.9428571,15.6666667 13.2380952,15.6666667 Z M18.1904762,13.9809524 L19.6,15.0857143 C19.7238095,15.1904762 19.7619048,15.3619048 19.6761905,15.5142857 L18.3428571,17.8190476 C18.2571429,17.9619048 18.0952381,18.0190476 17.9333333,17.9619048 L16.2761905,17.2952381 C15.9333333,17.5619048 15.552381,17.7809524 15.152381,17.952381 L14.8952381,19.7142857 C14.8761905,19.8761905 14.7333333,20 14.5714286,20 L11.9047619,20 C11.7333333,20 11.6,19.8761905 11.5714286,19.7142857 L11.3238095,17.952381 C10.9142857,17.7809524 10.5428571,17.5619048 10.2,17.2952381 L8.53333333,17.9619048 C8.39047619,18.0190476 8.20952381,17.9619048 8.13333333,17.8190476 L6.8,15.5142857 C6.71428571,15.3619048 6.75238095,15.1904762 6.87619048,15.0857143 L8.28571429,13.9809524 L8.23809524,13.3333333 L8.28571429,12.6761905 L6.87619048,11.5809524 C6.75238095,11.4761905 6.71428571,11.2952381 6.8,11.152381 L8.13333333,8.84761905 C8.20952381,8.6952381 8.39047619,8.63809524 8.53333333,8.6952381 L10.2,9.37142857 C10.5428571,9.1047619 10.9142857,8.87619048 11.3238095,8.71428571 L11.5714286,6.94285714 C11.6,6.79047619 11.7333333,6.66666667 11.9047619,6.66666667 L14.5714286,6.66666667 C14.7333333,6.66666667 14.8761905,6.79047619 14.8952381,6.94285714 L15.152381,8.71428571 C15.552381,8.87619048 15.9333333,9.1047619 16.2761905,9.37142857 L17.9333333,8.6952381 C18.0952381,8.63809524 18.2571429,8.6952381 18.3428571,8.84761905 L19.6761905,11.152381 C19.7619048,11.2952381 19.7238095,11.4761905 19.6,11.5809524 L18.1904762,12.6761905 L18.2380952,13.3333333 L18.1904762,13.9809524 Z M4.46666667,5.78095238 C5.2952381,5.78095238 5.96190476,5.11428571 5.96190476,4.28571429 C5.96190476,3.45714286 5.2952381,2.78095238 4.46666667,2.78095238 C3.63560961,2.78095238 2.96190476,3.45465723 2.96190476,4.28571429 C2.96190476,5.11428571 3.63809524,5.78095238 4.46666667,5.78095238 Z M7.64761905,4.7047619 L8.57142857,5.40952381 C8.63809524,5.47619048 8.65714286,5.59047619 8.6,5.68571429 L7.74285714,7.17142857 C7.6952381,7.26666667 7.58095238,7.3047619 7.48571429,7.26666667 L6.41904762,6.83809524 L5.71428571,7.25714286 L5.53333333,8.39047619 C5.51428571,8.4952381 5.42857143,8.57142857 5.32380952,8.57142857 L3.60952381,8.57142857 C3.4952381,8.57142857 3.40952381,8.4952381 3.39047619,8.39047619 L3.23809524,7.25714286 L2.51428571,6.83809524 L1.42857143,7.26666667 C1.34285714,7.3047619 1.23809524,7.26666667 1.18095238,7.17142857 L0.323809524,5.68571429 C0.266666667,5.59047619 0.295238095,5.47619048 0.371428571,5.40952381 L1.27619048,4.7047619 L1.24761905,4.28571429 L1.27619048,3.86666667 L0.371428571,3.16190476 C0.295238095,3.0952381 0.266666667,2.98095238 0.323809524,2.88571429 L1.18095238,1.4 C1.23809524,1.3047619 1.34285714,1.26666667 1.42857143,1.3047619 L2.5047619,1.73333333 L3.23809524,1.31428571 L3.39047619,0.180952381 C3.40952381,0.0761904762 3.4952381,0 3.60952381,0 L5.32380952,0 C5.42857143,0 5.51428571,0.0761904762 5.53333333,0.180952381 L5.71428571,1.31428571 L6.41904762,1.73333333 L7.48571429,1.3047619 C7.58095238,1.26666667 7.6952381,1.3047619 7.74285714,1.4 L8.6,2.88571429 C8.65714286,2.98095238 8.63809524,3.0952381 8.57142857,3.16190476 L7.64761905,3.86666667 L7.67619048,4.28571429 L7.64761905,4.7047619 Z" id="Shape"></path>
            </g>
        </g>
    </g>
</svg>

<svg xmlns="http://www.w3.org/2000/svg" width="20" height="20"><path fill="#FFF" fill-rule="nonzero" d="M13.238 15.667a2.337 2.337 0 0 0 2.333-2.334A2.337 2.337 0 0 0 13.238 11a2.33 2.33 0 0 0-2.333 2.333 2.33 2.33 0 0 0 2.333 2.334m4.952-1.686 1.41 1.105a.334.334 0 0 1 .076.428l-1.333 2.305c-.086.143-.248.2-.41.143l-1.657-.667a5 5 0 0 1-1.124.657l-.257 1.762a.33.33 0 0 1-.324.286h-2.666a.34.34 0 0 1-.334-.286l-.247-1.762a5 5 0 0 1-1.124-.657l-1.667.667a.325.325 0 0 1-.4-.143L6.8 15.514a.334.334 0 0 1 .076-.428l1.41-1.105-.048-.648.048-.657-1.41-1.095a.34.34 0 0 1-.076-.429l1.333-2.304c.077-.153.257-.21.4-.153l1.667.676a4.6 4.6 0 0 1 1.124-.657l.247-1.771a.34.34 0 0 1 .334-.276h2.666c.162 0 .305.123.324.276l.257 1.771c.4.162.781.39 1.124.657l1.657-.676a.327.327 0 0 1 .41.153l1.333 2.304a.34.34 0 0 1-.076.429l-1.41 1.095.048.657zm-13.723-8.2c.828 0 1.495-.667 1.495-1.495A1.5 1.5 0 1 0 4.467 5.78m3.18-1.076.924.705a.23.23 0 0 1 .029.276L7.743 7.17c-.048.096-.162.134-.257.096l-1.067-.429-.705.42-.18 1.132a.214.214 0 0 1-.21.181H3.61a.22.22 0 0 1-.22-.18l-.152-1.134-.724-.419-1.085.429c-.086.038-.19 0-.248-.096L.324 5.686A.22.22 0 0 1 .37 5.41l.905-.705-.028-.42.028-.418-.905-.705a.22.22 0 0 1-.047-.276L1.18 1.4c.057-.095.162-.133.248-.095l1.076.428.733-.419L3.39.181A.22.22 0 0 1 3.61 0h1.714c.105 0 .19.076.21.181l.18 1.133.705.42 1.067-.43c.095-.037.21 0 .257.096L8.6 2.886a.23.23 0 0 1-.029.276l-.923.705.028.419z"/></svg>
